server/website/public/icons/base/games.svg

<svg width="48" height="48" viewBox="0 0 48 48" fill="none" xmlns="http://www.w3.org/2000/svg">
<path fill-rule="evenodd" clip-rule="evenodd" d="M46.6653 22.4668C44.5485 10.6444 39.8157 7.15723 37.2981 7.15723C33.3693 7.15723 32.3613 10.078 23.9997 10.1764C15.6381 10.078 14.6301 7.15723 10.7013 7.15723C8.18369 7.15723 3.44849 10.6444 1.33169 22.4668C0.124492 29.2156 -1.18591 39.2908 1.93649 40.5004C5.82209 42.0052 7.13969 38.242 11.4069 35.062C15.7389 31.8388 17.8173 31.0804 23.9997 31.0804C30.1821 31.0804 32.2605 31.8388 36.5925 35.062C40.8597 38.2396 42.1773 42.0052 46.0629 40.5004C49.1853 39.2908 47.8749 29.218 46.6653 22.4668ZM14.3997 24.0004C13.1267 24.0004 11.9058 23.4947 11.0056 22.5945C10.1054 21.6944 9.59969 20.4735 9.59969 19.2004C9.59969 17.9274 10.1054 16.7065 11.0056 15.8063C11.9058 14.9061 13.1267 14.4004 14.3997 14.4004C15.6727 14.4004 16.8936 14.9061 17.7938 15.8063C18.694 16.7065 19.1997 17.9274 19.1997 19.2004C19.1997 20.4735 18.694 21.6944 17.7938 22.5945C16.8936 23.4947 15.6727 24.0004 14.3997 24.0004ZM31.1997 24.0004C30.5632 24.0004 29.9527 23.7476 29.5026 23.2975C29.0525 22.8474 28.7997 22.2369 28.7997 21.6004C28.7997 20.9639 29.0525 20.3535 29.5026 19.9034C29.9527 19.4533 30.5632 19.2004 31.1997 19.2004C31.8362 19.2004 32.4467 19.4533 32.8967 19.9034C33.3468 20.3535 33.5997 20.9639 33.5997 21.6004C33.5997 22.2369 33.3468 22.8474 32.8967 23.2975C32.4467 23.7476 31.8362 24.0004 31.1997 24.0004ZM35.9997 19.2004C35.3632 19.2004 34.7527 18.9476 34.3026 18.4975C33.8525 18.0474 33.5997 17.4369 33.5997 16.8004C33.5997 16.1639 33.8525 15.5535 34.3026 15.1034C34.7527 14.6533 35.3632 14.4004 35.9997 14.4004C36.6362 14.4004 37.2467 14.6533 37.6967 15.1034C38.1468 15.5535 38.3997 16.1639 38.3997 16.8004C38.3997 17.4369 38.1468 18.0474 37.6967 18.4975C37.2467 18.9476 36.6362 19.2004 35.9997 19.2004Z" fill="black"/>
</svg>

<svg width="48" height="48" fill="none" xmlns="http://www.w3.org/2000/svg"><path fill-rule="evenodd" clip-rule="evenodd" d="M46.665 22.467c-2.117-11.823-6.85-15.31-9.367-15.31-3.929 0-4.937 2.921-13.298 3.02-8.362-.099-9.37-3.02-13.299-3.02-2.517 0-7.253 3.487-9.37 15.31C.125 29.216-1.185 39.29 1.937 40.5c3.886 1.505 5.204-2.258 9.47-5.438C15.74 31.839 17.818 31.08 24 31.08c6.182 0 8.26.759 12.593 3.982 4.267 3.178 5.584 6.943 9.47 5.438 3.122-1.21 1.812-11.282.602-18.033zM14.4 24a4.8 4.8 0 110-9.6 4.8 4.8 0 010 9.6zm16.8 0a2.4 2.4 0 110-4.8 2.4 2.4 0 010 4.8zm4.8-4.8a2.4 2.4 0 110-4.8 2.4 2.4 0 010 4.8z" fill="#000"/></svg>
